svgs/sharp-light/retweet.svg

<svg xmlns="http://www.w3.org/2000/svg" viewBox="0 0 576 512"><!--! Font Awesome Pro 6.6.0 by @fontawesome - https://fontawesome.com License - https://fontawesome.com/license (Commercial License) Copyright 2024 Fonticons, Inc. --><path d="M32 192L0 192l0-32L73.4 86.6 96 64l22.6 22.6L192 160l0 32-32 0-48 0 0 192 192 0 16 0 0 32-16 0L96 416l-16 0 0-16 0-208-48 0zm114.7-32L96 109.3 45.3 160 80 160l32 0 34.7 0zM464 128l-192 0-16 0 0-32 16 0 208 0 16 0 0 16 0 208 48 0 32 0 0 32-73.4 73.4L480 448l-22.6-22.6L384 352l0-32 32 0 48 0 0-192zm16 274.7L530.7 352 496 352l-32 0-34.7 0L480 402.7z"/></svg>

<svg xmlns="http://www.w3.org/2000/svg" viewBox="0 0 576 512"><!--! Font Awesome Pro 6.4.0 by @fontawesome - https://fontawesome.com License - https://fontawesome.com/license (Commercial License) Copyright 2023 Fonticons, Inc. --><path d="M32 192H0V160L73.4 86.6 96 64l22.6 22.6L192 160v32H160 112V384H304h16v32H304 96 80V400 192H32zm114.7-32L96 109.3 45.3 160H80h32 34.7zM464 128H272 256V96h16H480h16v16V320h48 32v32l-73.4 73.4L480 448l-22.6-22.6L384 352V320h32 48V128zm16 274.7L530.7 352H496 464 429.3L480 402.7z"/></svg>
